X:177
T:Martin Wynne's #3 (*) (reel) 
B:CRE2.143 (gan ainm)
F:file ID: cre.2/177mart_w3
L:1/8
M:C
R:reel
Q:180
K:G
e|dged B2Ac|BGdG DEGA|BGG2 Bdef|g2ga gfed|
d2ed B2Ac|BGdG DEGA|BGG2 Bdef|1 gbaf g3:|2 gbaf g2||
|:ef|g2ga gfeB|d2ed BGBd|g2ga gfeB|dega bggf|
gbaf gfeB|d2ed BGBd|g2ga gfed|1 ceaf g2:|2 ceaf g4|]

%%%

